styles/4/Numix/22/places/purple-folder-download.svg

<?xml version="1.0" encoding="UTF-8" standalone="no"?>
<!-- Created with Inkscape (http://www.inkscape.org/) -->

<svg
   xmlns:dc="http://purl.org/dc/elements/1.1/"
   xmlns:cc="http://creativecommons.org/ns#"
   xmlns:rdf="http://www.w3.org/1999/02/22-rdf-syntax-ns#"
   xmlns:svg="http://www.w3.org/2000/svg"
   xmlns="http://www.w3.org/2000/svg"
   xmlns:sodipodi="http://sodipodi.sourceforge.net/DTD/sodipodi-0.dtd"
   xmlns:inkscape="http://www.inkscape.org/namespaces/inkscape"
   width="22"
   height="22"
   id="svg2"
   version="1.1"
   inkscape:version="0.91 r"
   sodipodi:docname="purple-folder-download.svg"
   inkscape:export-filename="/media/Data/Main/Visuals/Icons/Numix/Desktop/repos/numix-wiki/Gjorgi/Numix-folders/48/New/folder-144.png"
   inkscape:export-xdpi="270"
   inkscape:export-ydpi="270">
  <defs
     id="defs4" />
  <sodipodi:namedview
     id="base"
     pagecolor="#ffffff"
     bordercolor="#666666"
     borderopacity="1.0"
     inkscape:pageopacity="0.0"
     inkscape:pageshadow="2"
     inkscape:zoom="19.696326"
     inkscape:cx="3.5256217"
     inkscape:cy="10.678589"
     inkscape:document-units="px"
     inkscape:current-layer="layer1"
     showgrid="true"
     inkscape:window-width="1280"
     inkscape:window-height="998"
     inkscape:window-x="0"
     inkscape:window-y="0"
     inkscape:window-maximized="1"
     showguides="true"
     inkscape:guide-bbox="true">
    <inkscape:grid
       type="xygrid"
       id="grid2985"
       empspacing="5"
       visible="true"
       enabled="true"
       snapvisiblegridlinesonly="true" />
  </sodipodi:namedview>
  <metadata
     id="metadata7">
    <rdf:RDF>
      <cc:Work
         rdf:about="">
        <dc:format>image/svg+xml</dc:format>
        <dc:type
           rdf:resource="http://purl.org/dc/dcmitype/StillImage" />
        <dc:title />
      </cc:Work>
    </rdf:RDF>
  </metadata>
  <g
     inkscape:label="Layer 1"
     inkscape:groupmode="layer"
     id="layer1"
     transform="translate(0,-1030.3622)">
    <path
       inkscape:connector-curvature="0"
       id="path2998"
       d="m 2,1032.3622 17,0 c 1,0 2,1 2,2 l 0,4 c 0,1.108 -0.446,2 -1,2 l -18,0 c -0.554,0 -1,-0.892 -1,-2 l 0,-6 z"
       style="fill:#512da8;fill-opacity:1;stroke:none"
       sodipodi:nodetypes="csssssscc" />
    <path
       style="opacity:0.02999998;fill:#000000;fill-opacity:1;stroke:none"
       d="m 1,1034.3622 0,5 20,0 0,-5 z"
       id="path3807"
       inkscape:connector-curvature="0" />
    <rect
       style="fill:#7e57c2;fill-opacity:1;stroke:none"
       id="rect2990"
       width="22"
       height="17"
       x="0"
       y="1035.3622"
       rx="2"
       ry="2" />
    <path
       sodipodi:nodetypes="csssscc"
       inkscape:connector-curvature="0"
       id="path3000"
       d="m 1,1033.3622 0,-1 c 0,-1 0,-2 1,-2 l 4,0 c 1,0 1,1 1,2 l 0,1 z"
       style="fill:#512da8;fill-opacity:1;stroke:none" />
    <path
       style="opacity:0.05;fill:#000000;fill-opacity:1;stroke:none"
       d="m 7,1032.3622 0,1 1,0 11,0 c 1,0 2,1 2,2 l 0,-1 c 0,-1 -1,-2 -2,-2 l -11,0 z"
       id="path3002"
       inkscape:connector-curvature="0"
       sodipodi:nodetypes="cccscsscc" />
    <path
       style="opacity:0.05;fill:#000000;fill-opacity:1;stroke:none"
       d="m 2,1030.3622 c -1,0 -1,1 -1,2 l 0,0.25 c 0.046875,-0.7031 0.25,-1.25 1,-1.25 l 4,0 c 0.75,0 0.953125,0.5469 1,1.25 l 0,-0.25 c 0,-1 0,-2 -1,-2 l -4,0 z"
       id="path3780"
       inkscape:connector-curvature="0" />
    <path
       style="opacity:0.1;fill:#ffffff;fill-opacity:1;stroke:none"
       d="m 2,1035.3622 c -0.7419013,0 -1.3734731,0.4031 -1.71875,1 l 21.4375,0 c -0.345277,-0.5969 -0.976849,-1 -1.71875,-1 l -18,0 z"
       id="rect2991"
       inkscape:connector-curvature="0" />
    <path
       style="opacity:1.0;fill:#54398d;fill-opacity:1;stroke:none"
       d="M 11 9 C 10.446 9 10 9.446 10 10 L 10 14 L 8.46875 14 C 7.837171 14 7.837171 13.9934 8.46875 14.625 L 10.375 16.53125 C 11.006579 17.16285 10.993421 17.16285 11.625 16.53125 L 13.53125 14.625 C 14.162829 13.9934 14.162829 14 13.53125 14 L 12 14 L 12 10 C 12 9.446 11.554 9 11 9 z M 6.375 13 C 6.1658155 13 6 13.223 6 13.5 L 6 18.5 C 6 18.56925 6.0121935 18.627641 6.03125 18.6875 C 6.0398376 18.71083 6.0505201 18.728494 6.0625 18.75 C 6.0781195 18.783892 6.103923 18.81584 6.125 18.84375 C 6.1788119 18.915007 6.2339967 18.950898 6.3125 18.96875 C 6.3335619 18.973539 6.3528747 19 6.375 19 L 6.5 19 L 6.625 19 L 15.5 19 C 15.699305 19 15.888307 18.886692 15.96875 18.71875 C 15.972283 18.710598 15.965667 18.695875 15.96875 18.6875 C 15.993984 18.627641 16 18.56925 16 18.5 L 16 13.5 C 16 13.223 15.777 13 15.5 13 C 15.223 13 15 13.223 15 13.5 L 15 18 L 7 18 L 7 13.5 C 7 13.223 6.8341845 13 6.625 13 L 6.375 13 z "
       transform="translate(0,1030.3622)"
       id="rect2989-6" />
  </g>
</svg>

<!-- Created with Inkscape (http://www.inkscape.org/) -->
<svg xmlns="http://www.w3.org/2000/svg" viewBox="0 0 22 22">
 <g transform="translate(0,-1030.3622)">
  <path d="m 2 1032.36 17 0 c 1 0 2 1 2 2 l 0 4 c 0 1.108 -0.446 2 -1 2 l -18 0 c -0.554 0 -1 -0.892 -1 -2 l 0 -6 z" style="fill:#512da8;fill-opacity:1;stroke:none"/>
  <path d="m 1 1034.36 0 5 20 0 0 -5 z" style="fill:#000;opacity:0.03;fill-opacity:1;stroke:none"/>
  <rect width="22" height="17" y="1035.36" rx="2" style="fill:#7e57c2;fill-opacity:1;stroke:none"/>
  <path d="m 1 1033.36 0 -1 c 0 -1 0 -2 1 -2 l 4 0 c 1 0 1 1 1 2 l 0 1 z" style="fill:#512da8;fill-opacity:1;stroke:none"/>
  <path d="m 7 1032.36 0 1 1 0 11 0 c 1 0 2 1 2 2 l 0 -1 c 0 -1 -1 -2 -2 -2 l -11 0 z" style="fill:#000;opacity:0.05;fill-opacity:1;stroke:none"/>
  <path d="m 2 1030.36 c -1 0 -1 1 -1 2 l 0 0.25 c 0.047 -0.703 0.25 -1.25 1 -1.25 l 4 0 c 0.75 0 0.953 0.547 1 1.25 l 0 -0.25 c 0 -1 0 -2 -1 -2 l -4 0 z" style="fill:#000;opacity:0.05;fill-opacity:1;stroke:none"/>
  <path d="m 2 1035.36 c -0.742 0 -1.373 0.403 -1.719 1 l 21.438 0 c -0.345 -0.597 -0.977 -1 -1.719 -1 l -18 0 z" style="fill:#fff;opacity:0.1;fill-opacity:1;stroke:none"/>
  <path d="m 11 9 c -0.554 0 -1 0.446 -1 1 l 0 4 l -1.531 0 c -0.632 0 -0.632 -0.007 0 0.625 l 1.906 1.906 c 0.632 0.632 0.618 0.632 1.25 0 l 1.906 -1.906 c 0.632 -0.632 0.632 -0.625 0 -0.625 l -1.531 0 l 0 -4 c 0 -0.554 -0.446 -1 -1 -1 z m -4.625 4 c -0.209 0 -0.375 0.223 -0.375 0.5 l 0 5 c 0 0.069 0.012 0.128 0.031 0.188 c 0.009 0.023 0.019 0.041 0.031 0.063 c 0.016 0.034 0.041 0.066 0.063 0.094 c 0.054 0.071 0.109 0.107 0.188 0.125 c 0.021 0.005 0.04 0.031 0.063 0.031 l 0.125 0 l 0.125 0 l 8.875 0 c 0.199 0 0.388 -0.113 0.469 -0.281 c 0.004 -0.008 -0.003 -0.023 0 -0.031 c 0.025 -0.06 0.031 -0.118 0.031 -0.188 l 0 -5 c 0 -0.277 -0.223 -0.5 -0.5 -0.5 c -0.277 0 -0.5 0.223 -0.5 0.5 l 0 4.5 l -8 0 l 0 -4.5 c 0 -0.277 -0.166 -0.5 -0.375 -0.5 l -0.25 0 z" transform="translate(0,1030.3622)" style="fill:#54398d;opacity:1;fill-opacity:1;stroke:none"/>
 </g>
</svg>
